X: 3
T: The Eavesdropper
R: jig
M: 6/8
L: 1/8
K: Dmaj
D2F FED|F3 AFD|GBB AFD|FEE EFE|
D3 FED|F3 AFD|GBB AFE|FDD D3:||
A|def ecA|Bcd AFD|GBB AFD|FEE EFA|
d2f ecA|Bdd AFD| GBB AFE|FDD D3:||


Tune 389	Setting 13224

